!!!COA:	Josquin des Prez
!!!CDT:	~1450-1521/08/27
!!!OPR:	Missa Mater patris
!!!ONM:	2
!!!OTL:	Gloria
!!!AGN:	Mass; Gloria
!!!SCT:	NJE 10.1
!!!SCA:	New Josquin Edition 10.1
!!!voices: 4
!!!voices-OPR: 4(-5)
**kern	**kern	**kern	**kern
*staff4	*staff3	*staff2	*staff1
*I"Bassus	*I"Tenor	*I"Altus1	*I"Altus2
*I'B	*I'T	*I'A1	*I'A2
*>[A,B]	*>[A,B]	*>[A,B]	*>[A,B]
*>Gloria[A]	*>Gloria[A]	*>Gloria[A]	*>Gloria[A]
*>QuiTollis[B]	*>QuiTollis[B]	*>QuiTollis[B]	*>QuiTollis[B]
*clefF4	*clefGv2	*clefGv2	*clefG2
*clefF4	*clefGv2	*clefGv2	*clefGv2
*k[b-]	*k[b-]	*k[b-]	*k[b-]
*>A	*>A	*>A	*>A
*M2/1	*M2/1	*M2/1	*M2/1
*met(C|)	*met(C|)	*met(C|)	*met(C|)
=1-	=1-	=1-	=1-
!!section: Et in terra pax
!!!OMD: Et in terra pax
1.G	0r	0r	0r
2G\	.	.	.
=2	=2	=2	=2
1G	0r	0r	0r
1F	.	.	.
=3	=3	=3	=3
1.B-	0r	1.G	0r
2G\	.	2G/	.
=4	=4	=4	=4
1B-	0r	1G	0r
1c	.	1F	.
=5	=5	=5	=5
1d	0r	1.B-	0r
2G\	.	.	.
[2d\	.	2G/	.
=6	=6	=6	=6
2d\]	0r	1B-	0r
4c\	.	.	.
4B-\	.	.	.
1A	.	1c	.
=7	=7	=7	=7
2G\	0r	1d	0r
2.d\	.	.	.
.	.	2G/	.
4c\	.	.	.
[2B-\	.	[2d\	.
=8	=8	=8	=8
2B-\]	0r	2d\]	0r
4A\	.	4c\	.
4G\	.	4B-\	.
2F\	.	1A	.
2c\	.	.	.
=9	=9	=9	=9
2.B-\	0r	2G/	0r
.	.	2.d\	.
4c\	.	.	.
4d\	.	.	.
4e-i\	.	4c\	.
[2d\	.	[2B-\	.
=10	=10	=10	=10
2d\]	0r	2B-\]	0r
4c\	.	4A/	.
4B-\	.	4G/	.
1A	.	2F/	.
.	.	2c\	.
=11	=11	=11	=11
2G\	0r	2.B-\	0r
4GG/	.	.	.
4AA/	.	4c\	.
4BB-/	.	4d\	.
4C/	.	4e-i\	.
4D\	.	[2d\	.
4E\	.	.	.
=12	=12	=12	=12
4F\	0r	2d\]	0r
4D\	.	.	.
2.G\	.	4c\	.
.	.	4B-\	.
.	.	1A	.
4F#i\	.	.	.
4F#i\	.	.	.
4E\	.	.	.
=13	=13	=13	=13
1G	1r	1G	1r
1GG	1G	1B-	1d
=14	=14	=14	=14
1GG	1G	1B-	1d
1GG	1G	1B-	1d
=15	=15	=15	=15
1D	1F	1A	1d
2r	2r	2r	2r
[2GG/	[2G/	[2B-\	[2d\
=16	=16	=16	=16
2GG/]	2G/]	2B-\]	2d\]
2GG/	2G/	2B-\	2d\
2GG/	2G/	2B-\	2d\
2GG/	2G/	2B-\	2d\
=17	=17	=17	=17
1GG	1G	1B-	1d
1D	1F	1A	1d
=18	=18	=18	=18
2r	2r	2r	2r
1BB-	1B-	1d	1f
2BB-/	2B-\	2d\	2f\
=19	=19	=19	=19
1BB-	1B-	1d	1f
1BB-	1B-	1d	1f
=20	=20	=20	=20
1F	1A	1c	1f
2r	2r	2r	2r
2F\	2A/	2c\	2f\
=21	=21	=21	=21
2BB-/	2B-\	2d\	2f\
2F\	2A/	2c\	2f\
1BB-	1B-	1d	1f
=22	=22	=22	=22
1C	1G	1c	1e
2D\	1F	1A	1d
2D\	.	.	.
=23	=23	=23	=23
2E\	0r	2r	0r
2F\	.	2D/	.
2G\	.	2E/	.
2A\	.	2F/	.
=24	=24	=24	=24
2.B-\	0r	4G/	0r
.	.	4A/	.
.	.	4B-\	.
4A\	.	4c\	.
4G\	.	2d\	.
4F\	.	.	.
[2G\	.	[2e\	.
=25	=25	=25	=25
4G\]	0r	4e\]	0r
4F\	.	4d\	.
2D\	.	1d	.
1E	.	.	.
.	.	2c#i\	.
=26	=26	=26	=26
1D	1r	1d	1r
1GG	1G	1B-	1g
=27	=27	=27	=27
1C	1A	1c	1e
1D	1F	1A	1f
=28	=28	=28	=28
1GG	1G	1B-	1d
1C	1E	1G	1e
=29	=29	=29	=29
1AA	1F	1A	1c
1D	1D	1F	1f
=30	=30	=30	=30
2.C/	1.E	1.G	0e
4BB-/	.	.	.
1C	.	.	.
.	2F/	2A/	.
=31	=31	=31	=31
1GG	0G	0B-	0d
2r	.	.	.
2B-\	.	.	.
=32	=32	=32	=32
2A\	0r	1r	0r
2.B-\	.	.	.
.	.	1B-	.
4A\	.	.	.
4B-\	.	.	.
4G\	.	.	.
=33	=33	=33	=33
2A\	0r	2A/	0r
2G\	.	2.B-\	.
2r	.	.	.
.	.	4A/	.
2G\	.	4B-\	.
.	.	4G/	.
=34	=34	=34	=34
2F\	0r	2A/	0r
2.G\	.	2G/	.
.	.	2r	.
4A\	.	.	.
4B-\	.	2G/	.
4G\	.	.	.
=35	=35	=35	=35
2A\	0r	2F/	0r
2G\	.	2.G/	.
2r	.	.	.
.	.	4A/	.
2d\	.	4B-\	.
.	.	4G/	.
=36	=36	=36	=36
2c\	0r	2A/	0r
2.d\	.	2G/	.
.	.	2r	.
4e\	.	.	.
4f\	.	2d\	.
4d\	.	.	.
=37	=37	=37	=37
2e\	0r	2c\	0r
2d\	.	2.d\	.
2r	.	.	.
.	.	4e\	.
2D\	.	4f\	.
.	.	4d\	.
=38	=38	=38	=38
2C/	0r	2e\	0r
2.D\	.	2d\	.
.	.	2r	.
4E\	.	.	.
4F\	.	2d\	.
4D\	.	.	.
=39	=39	=39	=39
2E\	0r	2c\	0r
2D\	.	2.d\	.
2r	.	.	.
.	.	4c\	.
2B-\	.	4d\	.
.	.	4B-\	.
=40	=40	=40	=40
2A\	0r	2c\	0r
2.B-\	.	2B-\	.
.	.	2r	.
4A\	.	.	.
4B-\	.	2B-\	.
4G\	.	.	.
=41	=41	=41	=41
2A\	0r	2A/	0r
2.G\	.	2.B-\	.
4F\	.	4A/	.
4G\	.	4B-\	.
4E\	.	4G/	.
=42	=42	=42	=42
4F#i\	0r	1A	0r
4G\	.	.	.
4A\	.	.	.
4F#i\	.	.	.
1G	.	1G	.
=43	=43	=43	=43
2r	2r	2r	2r
2GG/	2G/	2B-\	2d\
2D\	2F/	2A/	2d\
2GG/	2D/	2G/	2d\
=44	=44	=44	=44
4GG/	1G	1B-	1d
4AA/	.	.	.
4BB-/	.	.	.
4C/	.	.	.
2D\	2F/	2A/	2d\
[2BB-/	[2B-\	[2d\	[2f\
=45	=45	=45	=45
2BB-/]	2B-\]	2d\]	2f\]
2BB-/	2B-\	2d\	2f\
2BB-/	2B-\	2d\	2f\
2BB-/	2B-\	2d\	2f\
=46	=46	=46	=46
1F	1A	1c	1f
1D	1B-	1d	1f
=47	=47	=47	=47
1E-	1G	1B-	1g
[1C	[1G	[1c	[1e-i
=48	=48	=48	=48
1C]	1G]	1c]	1e-]
[1D	1F	1A	1d
=49	=49	=49	=49
1D]	0r	2r	0r
.	.	2d\	.
2r	.	2d\	.
2G\	.	2d\	.
=50	=50	=50	=50
2G\	0r	2.B-\	0r
2G\	.	.	.
.	.	4G/	.
2.E\	.	2G/	.
.	.	[2c\	.
4C/	.	.	.
=51	=51	=51	=51
2C/	0r	2c\]	0r
1F	.	2c\	.
.	.	2.A/	.
2F\	.	.	.
.	.	4F/	.
=52	=52	=52	=52
2.D\	1r	1F	1r
4BB-/	.	.	.
2BB-/	2r	2r	2r
2GG/	2G/	2B-\	2d\
=53	=53	=53	=53
2BB-/	2G/	2B-\	2d\
2GG/	2G/	2B-\	2d\
2.BB-/	1G	1B-	1d
4C/	.	.	.
=54	=54	=54	=54
1D	1F	1A	1d
2r	2r	2r	2r
2GG/	2G/	2B-\	2d\
=55	=55	=55	=55
2BB-/	2G/	2B-\	2d\
2GG/	2G/	2B-\	2d\
2.BB-/	1G	1B-	1d
4C/	.	.	.
=56	=56	=56	=56
0Dl	0Fl	0Al	0dl
!!LO:LB:i:g=z
=57||	=57||	=57||	=57||
*>B	*>B	*>B	*>B
!!section: Qui tollis
!!!OMD: Qui tollis
*M2/1	*M2/1	*M2/1	*M2/1
*met(C|)	*met(C|)	*met(C|)	*met(C|)
1G	0r	1r	0r
2G\	.	1d	.
2G\	.	.	.
=58	=58	=58	=58
2F\	0r	2d\	0r
2D\	.	2d\	.
2E\	.	2c\	.
2F\	.	2A/	.
=59	=59	=59	=59
1G	0r	2B-\	0r
.	.	2c\	.
1r	.	1d	.
=60	=60	=60	=60
1.G	2r	2r	2r
.	1d	1g	1b-
2G\	2d\	2g\	2b-\
=61	=61	=61	=61
2G\	2d\	2g\	2b-\
2G\	2d\	2g\	2b-\
1G	1d	1g	1b-
=62	=62	=62	=62
0D	1d	1f	1a
.	1r	2r	2r
.	.	2d\	2f\
=63	=63	=63	=63
0r	0r	2e\	2g\
.	.	2c\	2e\
.	.	2d\	2f\
.	.	2e\	2g\
=64	=64	=64	=64
0r	0r	2f\	2a\
.	.	1g	1b-
.	.	4f\	4a\
.	.	4e\	4g\
=65	=65	=65	=65
0r	1.d	1f	1a
.	.	1r	1r
.	2d\	.	.
=66	=66	=66	=66
1.D	1d	1.f	1.a
.	2d\	.	.
2D\	2d\	2f\	2a\
=67	=67	=67	=67
1D	2d\	1f	1a
.	2d\	.	.
2G\	1d	2g\	2b-\
2G\	.	2g\	2b-\
=68	=68	=68	=68
2G\	1d	2g\	2b-\
2G\	.	2g\	2b-\
1D	[1d	1f	1a
=69	=69	=69	=69
1G	1d]	1g	1b-
1C	1c	1e	1g
=70	=70	=70	=70
0F	1A	1f	1a
.	1r	2r	1r
.	.	[2f\	.
=71	=71	=71	=71
2.B-\	0r	4f\]	0r
.	.	4e\	.
.	.	2f\	.
4A\	.	.	.
2B-\	.	2g\	.
2c\	.	[2a\	.
=72	=72	=72	=72
2.d\	0r	4a\]	0r
.	.	4g\	.
.	.	4f\	.
4c\	.	4e\	.
4B-\	.	2d\	.
4A\	.	.	.
2G\	.	2r	.
=73	=73	=73	=73
2r	0r	2d\	0r
2G\	.	2e\	.
2A\	.	2f\	.
2B-\	.	2g\	.
=74	=74	=74	=74
2c\	0r	2.e\	0r
2.A\	.	.	.
.	.	4c\	.
.	.	2c\	.
4F\	.	.	.
2F\	.	2r	.
=75	=75	=75	=75
2r	0r	2c\	0r
2F\	.	2d\	.
2G\	.	2e\	.
2A\	.	[2f\	.
=76	=76	=76	=76
2.B-\	0r	4f\]	0r
.	.	4e\	.
.	.	4d\	.
4A\	.	4c\	.
4G\	.	2d\	.
4F\	.	.	.
2G\	.	[2e\	.
=77	=77	=77	=77
2C/	0r	4e\]	0r
.	.	4d\	.
2D\	.	1d	.
1E	.	.	.
.	.	2c#i\	.
=78	=78	=78	=78
1D	1r	1d	1r
2r	2r	2r	2r
2D\	2A/	2d\	2f\
=79	=79	=79	=79
2D\	2A/	2d\	2f\
2D\	2A/	2d\	2f\
1AA	1A	1c	1e
=80	=80	=80	=80
1D	1A	1d	1f
1GG	1G	1B-	1d
=81	=81	=81	=81
0C	0G	0c	0e
=82	=82	=82	=82
1BB-	1B-	1d	1f
2r	2r	2r	2r
2D\	2A/	2d\	2f\
=83	=83	=83	=83
2AA/	2A/	2c\	2f\
2D\	2A/	2d\	2f\
1GG	1G	1B-	1d
=84	=84	=84	=84
1C	1G	1c	1e
1BB-	1B-	1d	1f
=85	=85	=85	=85
2r	2r	2r	2r
2D\	2F/	2d\	2f\
1C	1c	1e	1g
=86	=86	=86	=86
1F	1A	1c	1a
1D	1B-	1d	1f
=87	=87	=87	=87
1E-	1G	1B-	1g
1C	1G	1c	1e
=88	=88	=88	=88
1BB-	1B-	1d	1f
1r	1r	1r	1r
=89	=89	=89	=89
0D	0A	0d	0f
=90	=90	=90	=90
1E-i	1G	1B-	1g
[1C	[1c	[1e-i	[1g
=91	=91	=91	=91
1C]	1c]	1e-]	1g]
0D;	0A	0d	0f
=92	=92	=92	=92
*M3/1	*M3/1	*M3/1	*M3/1
*met(3)	*met(3)	*met(3)	*met(3)
1B-	0.r	0.r	0.r
1B-	.	.	.
1c	.	.	.
=93	=93	=93	=93
1.d	0.r	1B-	0.r
.	.	1B-	.
4c\	.	.	.
4B-\	.	.	.
1A	.	1c	.
=94	=94	=94	=94
1B-	0.r	1.d	0.r
1G	.	.	.
.	.	4c\	.
.	.	4B-\	.
1F	.	1A	.
=95	=95	=95	=95
1B-	0.r	1B-	0.r
1B-	.	1G	.
1c	.	1F	.
=96	=96	=96	=96
1.d	0.r	1B-	1d
.	.	1B-	1d
4c\	.	.	.
4B-\	.	.	.
1A	.	1c	1e
=97	=97	=97	=97
1.D	0.r	1.d	1.f
2E\	.	2c\	2e\
1F	.	1A	1c
=98	=98	=98	=98
1.BB-	0.r	1B-	1d
.	.	1G	1B-
2C/	.	.	.
1D	.	1F	1A
=99	=99	=99	=99
1GG	0G	0B-	0d
1G	.	.	.
1E	1G	1c	1e
=100	=100	=100	=100
1D	1A	1d	1f
1G	0G	1B-	0g
1E	.	1c	.
=101	=101	=101	=101
1D	1A	1d	1f
1G	0G	1B-	0g
1E	.	1c	.
=102	=102	=102	=102
1D	1A	1.d	1.f
1BB-	0D	.	.
.	.	2c\	2e\
1D	.	2B-\	2d\
.	.	2A/	2c\
=103	=103	=103	=103
1GG	1G	1B-	1d
1.C	1E	1.c	1.e
.	1G	.	.
2D\	.	2B-\	2d\
=104	=104	=104	=104
1E-i	1C	1G	0g
0D	0F	0A	.
.	.	.	1f#i
=105	=105	=105	=105
1BB-	1D	[0.Gl	[0.gl
0C	0E-i	.	.
=106	=106	=106	=106
0.GGl	0.Dl	0.G]	0.g]
==	==	==	==
*-	*-	*-	*-
!!!RDF**kern: l=long note in original notation
!!!RDF**kern: i=editorial accidental
!!!ENC: Will Watson 16/08/2011
!!!END: 2011/08/16/
!!!EED:	Jesse Rodin
!!!EEV:	2011/10/28/
!!attribution-level@Jos: 3 (tricky)
!!!ONB:	Translated from MusicXML and edited on 2011/10/28/ by Craig Sapp
!!muse2ps: T^@{OPR}^u^@{ONM}{. }@{OTL}^C^@{COA}?\n@{SCT}^i2I100v85,85,85,150Q16
